!!!COM: Palestrina, Giovanni Perluigi da
!!!OPR: In illo tempore
!!!OTL: Kyrie
**kern	**kern	**kern	**kern
*Ibass	*Itenor	*Icalto	*Icant
!Bassus	!Tenor	!Altus	!Cantus
*clefF4	*clefGv2	*clefG2	*clefG2
*k[]	*k[]	*k[]	*k[]
*A:aeo	*A:aeo	*A:aeo	*A:aeo
*M4/2	*M4/2	*M4/2	*M4/2
=1	=1	=1	=1
0E	0r	0r	0r
=2	=2	=2	=2
1E	0r	0r	0r
1D	.	.	.
=3	=3	=3	=3
1.F	0A	0r	0r
4E	.	.	.
4D	.	.	.
=4	=4	=4	=4
2C	1A	0r	0r
2D	.	.	.
2E	1G	.	.
2E	.	.	.
=5	=5	=5	=5
2AA	1.c	0e	0r
1A	.	.	.
4G	4B	.	.
4F	4A	.	.
=6	=6	=6	=6
2E	2G	1e	0r
2C	2A	.	.
1G	2B	1d	.
.	2B	.	.
=7	=7	=7	=7
1D	2A	1.f	0a
.	1d	.	.
1r	.	.	.
.	4c	4e	.
.	4B	4d	.
=8	=8	=8	=8
0r	2A	2c	1a
.	2F	2d	.
.	1c	2e	1g
.	.	2e	.
=9	=9	=9	=9
0r	2F	1A	1.cc
.	1A	.	.
.	.	2r	.
.	4G	2e	4b
.	4F	.	4a
=10	=10	=10	=10
1r	2E	2e	2g
.	2F	2d	2a
2r	1E	2.g	2b
2E	.	.	2b
.	.	4e	.
=11	=11	=11	=11
2E	0r	2g	2e
2D	.	2.f	2a
2G	.	.	2b
.	.	4e	.
2E	.	[2e	[2cc
=12	=12	=12	=12
1F	2r	2e]	2cc]
.	2A	2d	4b
.	.	.	4a
1E	2A	[1e	2cc
.	2G	.	2b
=13	=13	=13	=13
1AA	2.c	1e]	2r
.	.	.	2a
.	4A	.	.
1r	2c	2r	2a
.	2B	2d	2g
=14	=14	=14	=14
1r	1A	2d	2f
.	.	2c	2e
2r	1r	2f	4d
.	.	.	4e
2D	.	2d	4f
.	.	.	4g
=15	=15	=15	=15
2D	0r	2f	4a
.	.	.	4b
2C	.	4e	1cc
.	.	4d	.
2F	.	2c	.
2D	.	2d	4b
.	.	.	4a
=16	=16	=16	=16
1E	2r	2B	2.g
.	2E	4e	.
.	.	4f	4a
1r	2E	4g	4b
.	.	4e	4cc
.	2D	2f	2dd
=17	=17	=17	=17
0r	2G	2d	2b
.	2E	2e	2.cc
.	1F	4A	.
.	.	4B	4b
.	.	4c	[2a
.	.	4A	.
=18	=18	=18	=18
2r	1E	1B	2a]
2E	.	.	2g
2E	2G	1r	2e
2D	2A	.	[2f
=19	=19	=19	=19
2G	2B	1r	4f]
.	.	.	4e
2E	1c	.	1e
1F	.	1A	.
.	4B	.	2d
.	4A	.	.
=20	=20	=20	=20
2.E	1B	2A	1e
.	.	2G	.
4D	.	.	.
2C	1E	2.c	2r
2AA	.	.	2a
.	.	4A	.
=21	=21	=21	=21
1E	1r	1B	2a
.	.	.	2g
1AA	2r	1e	2.cc
.	2A	.	.
.	.	.	4a
=22	=22	=22	=22
1E	2A	1e	1b
.	2G	.	.
2.C	1c	2r	2.e
.	.	2e	.
4D	.	.	4f
=23	=23	=23	=23
2E	2B	2e	2g
2F	2A	2d	1a
1E	1B	1e	.
.	.	.	2g#
=24	=24	=24	=24
0AA	0A	0e	0a
=25	=25	=25	=25
0r	1r	1c	0r
.	1G	2d	.
.	.	2e	.
=26	=26	=26	=26
0r	2A	2f	1r
.	2B	2d	.
.	2c	1g	2r
.	2G	.	2g
=27	=27	=27	=27
0r	1d	2f	2a
.	.	4e	2b
.	.	4d	.
.	2.c	2.e	2cc
.	.	.	2g
.	8B	8d	.
.	8A	8c	.
=28	=28	=28	=28
0r	2G	2B	1dd
.	2B	2d	.
.	2.A	2e	2.cc
.	.	[2f	.
.	8G	.	8b
.	8F	.	8a
=29	=29	=29	=29
2r	1E	4f]	2g
.	.	4e	.
2G	.	1e	2b
2A	2F	.	2a
2B	2G	2d	[2g
=30	=30	=30	=30
2c	1C	1e	4g]
.	.	.	4c
2C	.	.	1cc
1G	2r	1d	.
.	2G	.	2b
=31	=31	=31	=31
2F	2A	1r	2a
4E	2B	.	4g
4D	.	.	4f
2C	2c	1G	2e
2E	2G	.	2g
=32	=32	=32	=32
2.D	1d	2A	2.f
.	.	2B	.
8C	.	.	8e
8BB	.	.	8d
2AA	1r	2c	2e
2E	.	2G	2g
=33	=33	=33	=33
2F	0r	1d	2a
2G	.	.	2b
1C	.	2.c	2cc
.	.	.	2g
.	.	8B	.
.	.	8A	.
=34	=34	=34	=34
0r	0r	2G	1dd
.	.	2B	.
.	.	4A	2.cc
.	.	4B	.
.	.	4c	.
.	.	4d	8b
.	.	.	8a
=35	=35	=35	=35
0r	1r	4e	2g
.	.	4f	.
.	.	1g	2b
.	2r	.	1a
.	2D	2f	.
=36	=36	=36	=36
0r	2E	2e	2g
.	2F	4d	4f
.	.	4c	4e
.	2G	2B	2d
.	2D	[2d	2f
=37	=37	=37	=37
0r	1A	4d]	2e
.	.	4c	.
.	.	1c	4d
.	.	.	4c
.	1G	.	2.d
.	.	2B	.
.	.	.	4e
=38	=38	=38	=38
2r	2A	1c	4f
.	.	.	4e
2C	2c	.	1a
2D	1B	1r	.
2E	.	.	2g
=39	=39	=39	=39
2F	1r	1c	2a
2C	.	.	2cc
1G	2r	2d	1b
.	2G	2e	.
=40	=40	=40	=40
2.F	2.A	2f	1r
.	.	2c	.
8E	4B	.	.
8D	.	.	.
2C	2c	1g	2r
2E	2G	.	2g
=41	=41	=41	=41
2.D	1d	2.f	2a
.	.	.	2b
8C	.	8e	.
8BB	.	8d	.
1AA	2.c	2.e	2cc
.	.	.	2a
.	8B	8d	.
.	8A	8c	.
=42	=42	=42	=42
0r	2G	2B	1dd
.	2B	2d	.
.	2.A	2e	2.cc
.	.	4c	.
.	8G	4d	8b
.	8F	.	8a
=43	=43	=43	=43
0r	1E	4e	2g
.	.	4f	.
.	.	2.g	2b
.	2.F	.	2.a
.	.	4f	.
.	.	[2f	.
.	8E	.	8g
.	8D	.	8f
=44	=44	=44	=44
2r	1C	4f]	2e
.	.	4e	.
2G	.	1e	2g
2A	1r	.	1f
2B	.	2d	.
=45	=45	=45	=45
2c	1r	2.e	[0e
2.C	.	.	.
.	.	4d	.
.	1G	2c	.
4D	.	.	.
2E	.	2B	.
=46	=46	=46	=46
2AA	2A	2r	1e_
2E	2B	1G	.
2C	2.c	.	1e_
2AA	.	2A	.
.	8B	.	.
.	8A	.	.
=47	=47	=47	=47
2E	2G	2B	0e]
4AA	2A	2.c	.
4BB	.	.	.
4C	2E	.	.
4D	.	8B	.
.	.	8A	.
2E	2B	2G	.
=48	=48	=48	=48
0AA	2.c	1A	[0e
.	4B	.	.
.	1A	1c	.
=49	=49	=49	=49
0E	0G#	0B	0e]
=50	=50	=50	=50
1A	2r	1e	0r
.	2.c	.	.
2A	.	2e	.
.	8B	.	.
.	8A	.	.
2G#	2B	2e	.
=51	=51	=51	=51
1A	2c	1e	2r
.	2.A	.	2.cc
1E	.	1e	.
.	8G#	.	8b
.	8F#	.	8a
.	2G#	.	2b
=52	=52	=52	=52
0r	2A	2r	2cc
.	2F	2.f	2.a
.	1c	.	.
.	.	8e	8g
.	.	8d	8f
.	.	2e	2g
=53	=53	=53	=53
1r	2.F	2f	2a
.	.	2.d	2.f
.	4G	.	.
2r	1A	.	.
.	.	8c#	8e
.	.	8B	8d
2A	.	2c#	2e
=54	=54	=54	=54
2A	2D	2.d	2f
2G	2.d	.	2g
.	.	8c	.
.	.	8B	.
1A	.	2A	4f
.	4c	.	4e
.	2c	2e	[2a
=55	=55	=55	=55
1E	1B	1e	2a]
.	.	.	2g#
2r	2.A	2r	1a
2A	.	[2c	.
.	8G	.	.
.	8F	.	.
=56	=56	=56	=56
2A	1E	4c]	1r
.	.	8B	.
.	.	8A	.
2G#	.	2B	.
1A	1e	2c	2.cc
.	.	2A	.
.	.	.	8b
.	.	.	8a
=57	=57	=57	=57
2E	2r	2G#	2b
2A	2.c	2A	2cc
2A	.	1e	2a
.	8B	.	.
.	8A	.	.
2G#	2B	.	[2e
=58	=58	=58	=58
1A	2c	2r	2e]
.	2A	2e	2cc
2E	2G	2e	4b
.	.	.	4g
2A	2F	2d	4a
.	.	.	4b
=59	=59	=59	=59
2A	1E	1e	2cc
2G#	.	.	2.b
1A	2.c	1e	.
.	.	.	4a
.	.	.	[2a
.	8B	.	.
.	8A	.	.
=60	=60	=60	=60
1E	1B	2r	2a]
.	.	2e	2g#
2r	[1A	2e	1a
2AA	.	2e	.
=61	=61	=61	=61
2D	0A]	2.f	1r
2D	.	.	.
.	.	8e	.
.	.	8d	.
2.F	.	2c	2r
.	.	2d	2a
8E	.	.	.
8D	.	.	.
=62	=62	=62	=62
2C	2r	2A	2a
2D	2A	2f	2a
1AA	2A	[1e	2.cc
.	2A	.	.
.	.	.	8b
.	.	.	8a
=63	=63	=63	=63
0r	2.c	1e]	2g
.	.	.	2a
.	8B	.	.
.	8A	.	.
.	2G	2r	2e
.	2A	2e	2cc
=64	=64	=64	=64
2r	1E	2e	4b
.	.	.	4a
2E	.	2e	4g
.	.	.	4f
2E	2r	2.g	1e
2E	2B	.	.
.	.	8f	.
.	.	8e	.
=65	=65	=65	=65
2.G	2B	2d	1r
.	2B	2e	.
8F	.	.	.
8E	.	.	.
2D	2d	2f	2r
2E	4c	[2e	2g
.	4B	.	.
=66	=66	=66	=66
1F	1.A	2e]	2a
.	.	2d	2a
1E	.	[1e	2cc
.	2G	.	4b
.	.	.	4a
=67	=67	=67	=67
2r	2.c	0e]	2g
2A	.	.	2a
.	4B	.	.
2A	4c	.	2e
.	4d	.	.
2A	[2e	.	4c
.	.	.	4d
=68	=68	=68	=68
2c	2e]	0r	4e
.	.	.	4f
4B	4d	.	4g
4A	4c	.	4a
2G	2d	.	2b
2A	2c	.	[2a
=69	=69	=69	=69
1E	1B	2r	2a]
.	.	2e	2g
2r	2A	2e	2cc
2E	2G	2e	4b
.	.	.	4a
=70	=70	=70	=70
2E	2r	2.g	1b
2E	2B	.	.
.	.	8f	.
.	.	8e	.
2.G	2B	2d	1g
.	2B	2e	.
8F	.	.	.
8E	.	.	.
=71	=71	=71	=71
2.D	2.d	0f	0a
4E	8c	.	.
.	8B	.	.
2.F	2A	.	.
.	[2d	.	.
4G	.	.	.
=72	=72	=72	=72
0A	2d]	[0e	[0a
.	4c#	.	.
.	4B	.	.
.	1c#	.	.
=73	=73	=73	=73
0AA	0c#	0e]	0a]
==	==	==	==
*-	*-	*-	*-
!!!CDT: 1525/^1526/-1594/2/2
!!!OCY: Italia
!!!AGN: Mass (Parody)
!!!AST: renaissance, vocal
!!!ASW: Motet 1518 (Moulu)
!!!PWK: Masses, Book 10
!!!RNB: Cadence finals: E,G,C
!!!YOR: Le Opere Complete, v. 27, p. 1
!!!YOO: Rome, Italy: Fratelli Scalera
!!!END: 1992//
!!!EED: John Miller
!!!YEC: Copyright 2000, John Miller
!!!YEN: United States of America
!!!YEM: Rights to all derivative electronic formats reserved.
!!!YEM: Refer to licensing agreement for further details.
!!!YEM: This file must be accompanied by the licensing agreement.
!!!YEM: A copy of the licensing agreement may be found at http://www.music-cog.ohio-state.edu/HumdrumDatabases/Palestrina/license.txt
!!!EMD: converted to Humdrum by Bret Aarden
